Icons/rename_me_8_ball.svg

<svg viewBox="0 0 48 48" xmlns:xlink="http://www.w3.org/1999/xlink">
 <defs>
  <linearGradient id="0">
   <stop stop-opacity="0"/>
   <stop offset="1"/>
  </linearGradient>
  <linearGradient xlink:href="#0" id="1" gradientUnits="userSpaceOnUse" gradientTransform="translate(4e-7,-48)" y1="47" x2="0" y2="1"/>
  <clipPath id="2">
   <g transform="translate(0,-1004.3622)">
    <rect rx="4" y="1005.36" x="1" height="46" width="46" fill="#1890d0"/>
   </g>
  </clipPath>
  <clipPath id="3">
   <g transform="translate(0,-1004.3622)">
    <rect rx="4" y="1005.36" x="1" height="46" width="46" fill="#1890d0"/>
   </g>
  </clipPath>
 </defs>
 <g>
  <g transform="translate(0,-1004.3622)">
   <path d="m 5,1006.3622 c -2.216,0 -4,1.784 -4,4 l 0,37.25 c 0,2.216 1.784,4 4,4 l 38,0 c 2.216,0 4,-1.784 4,-4 l 0,-37.25 c 0,-2.216 -1.784,-4 -4,-4 l -38,0 z m -4,41.5 0,0.5 c 0,2.216 1.784,4 4,4 l 38,0 c 2.216,0 4,-1.784 4,-4 l 0,-0.5 c 0,2.216 -1.784,4 -4,4 l -38,0 c -2.216,0 -4,-1.784 -4,-4 z" opacity="0.02"/>
   <path d="m 1,1047.6122 0,0.25 c 0,2.216 1.784,4 4,4 l 38,0 c 2.216,0 4,-1.784 4,-4 l 0,-0.25 c 0,2.216 -1.784,4 -4,4 l -38,0 c -2.216,0 -4,-1.784 -4,-4 z" opacity="0.05"/>
   <rect width="46" height="46" x="1" y="1005.61" rx="4" opacity="0.1"/>
  </g>
 </g>
 <g>
  <g transform="translate(0,-1004.3622)">
   <rect rx="4" y="1005.36" x="1" height="46" width="46" fill="#ebebeb"/>
  </g>
 </g>
 <g>
  <rect transform="scale(1,-1)" width="46" height="46" x="1" y="-46.998" rx="4" opacity="0.1" fill="url(#1)"/>
 </g>
 <g>
  <g clip-path="url(#2)">
   <g opacity="0.1">
    <g>
     <path d="M 39 24.003906 C 38.996094 32.289062 32.28125 39 24 39 C 15.71875 39 9.003906 32.289062 9 24.003906 C 8.996094 15.71875 15.714844 9 24 9 C 32.285156 9 39.003906 15.71875 39 24.003906 Z M 39 24.003906 "/>
     <path d="M 32 24 C 32 28.417969 28.417969 32 24 32 C 19.582031 32 16 28.417969 16 24 C 16 19.582031 19.582031 16 24 16 C 28.417969 16 32 19.582031 32 24 Z M 32 24 "/>
     <path d="M 24 19 C 27 19 28 22 25 23.75 C 26.457031 24.351562 27 24.890625 27 26.5 C 27 28 26 29 24 29 C 22 29 21 28 21 26.5 C 21 25.496094 21.726562 24.308594 23 23.75 C 20 22 21 19 24 19 M 22 26.5 C 22 29 26 29 26 26.5 C 26 25 25 24.277344 24 24.214844 C 22.628906 24.292969 22 25 22 26.5 M 23.988281 19.75 C 21 20 22 23 24.046875 23.363281 C 26 23 27 20 24 19.75 "/>
    </g>
   </g>
  </g>
 </g>
 <g>
  <g clip-path="url(#3)">
   <g transform="translate(0,-1)">
    <g>
     <path d="M 39 24.003906 C 38.996094 32.289062 32.28125 39 24 39 C 15.71875 39 9.003906 32.289062 9 24.003906 C 8.996094 15.71875 15.714844 9 24 9 C 32.285156 9 39.003906 15.71875 39 24.003906 Z M 39 24.003906 " fill="#2d2d2d"/>
     <path d="M 32 24 C 32 28.417969 28.417969 32 24 32 C 19.582031 32 16 28.417969 16 24 C 16 19.582031 19.582031 16 24 16 C 28.417969 16 32 19.582031 32 24 Z M 32 24 " fill="#f9f9f9"/>
     <path d="M 24 19 C 27 19 28 22 25 23.75 C 26.457031 24.351562 27 24.890625 27 26.5 C 27 28 26 29 24 29 C 22 29 21 28 21 26.5 C 21 25.496094 21.726562 24.308594 23 23.75 C 20 22 21 19 24 19 M 22 26.5 C 22 29 26 29 26 26.5 C 26 25 25 24.277344 24 24.214844 C 22.628906 24.292969 22 25 22 26.5 M 23.988281 19.75 C 21 20 22 23 24.046875 23.363281 C 26 23 27 20 24 19.75 " fill="#2d2d2d"/>
    </g>
   </g>
  </g>
 </g>
 <g>
  <g transform="translate(0,-1004.3622)">
   <path d="m 1,1043.3622 0,4 c 0,2.216 1.784,4 4,4 l 38,0 c 2.216,0 4,-1.784 4,-4 l 0,-4 c 0,2.216 -1.784,4 -4,4 l -38,0 c -2.216,0 -4,-1.784 -4,-4 z" opacity="0.1"/>
  </g>
 </g>
</svg>

<svg viewBox="0 0 48 48"><defs><linearGradient id="linearGradient3764" x1="1" x2="47" gradientUnits="userSpaceOnUse" gradientTransform="translate(-48.000001,0.00221467)"><stop stop-color="#e1e1e1" stop-opacity="1"/><stop offset="1" stop-color="#ebebeb" stop-opacity="1"/></linearGradient><clipPath id="clipPath-949713045"><g transform="translate(0,-1004.3622)"><rect rx="4" y="1005.36" x="1" height="46" width="46" fill="#1890d0"/></g></clipPath><clipPath id="clipPath-962390930"><g transform="translate(0,-1004.3622)"><rect rx="4" y="1005.36" x="1" height="46" width="46" fill="#1890d0"/></g></clipPath></defs><g><path d="m 1 43 l 0 0.25 c 0 2.216 1.784 4 4 4 l 38 0 c 2.216 0 4 -1.784 4 -4 l 0 -0.25 c 0 2.216 -1.784 4 -4 4 l -38 0 c -2.216 0 -4 -1.784 -4 -4 z m 0 0.5 l 0 0.5 c 0 2.216 1.784 4 4 4 l 38 0 c 2.216 0 4 -1.784 4 -4 l 0 -0.5 c 0 2.216 -1.784 4 -4 4 l -38 0 c -2.216 0 -4 -1.784 -4 -4 z" opacity="0.02"/><path d="m 1 43.25 l 0 0.25 c 0 2.216 1.784 4 4 4 l 38 0 c 2.216 0 4 -1.784 4 -4 l 0 -0.25 c 0 2.216 -1.784 4 -4 4 l -38 0 c -2.216 0 -4 -1.784 -4 -4 z" opacity="0.05"/><path d="m 1 43 l 0 0.25 c 0 2.216 1.784 4 4 4 l 38 0 c 2.216 0 4 -1.784 4 -4 l 0 -0.25 c 0 2.216 -1.784 4 -4 4 l -38 0 c -2.216 0 -4 -1.784 -4 -4 z" opacity="0.1"/></g><g><rect width="46" height="46" x="-47" y="1" rx="4" transform="matrix(0,-1,1,0,0,0)" fill="url(#linearGradient3764)" fill-opacity="1"/></g><g><g clip-path="url(#clipPath-949713045)"><g opacity="0.1"><!-- color: #ebebeb --><g><path d="m 39 24 c -0.004 8.285 -6.719 14.996 -15 14.996 c -8.281 0 -14.996 -6.711 -15 -14.996 c -0.004 -8.285 6.715 -15 15 -15 c 8.285 0 15 6.719 15 15 m 0 0" fill="#000"/><path d="m 32 24 c 0 4.418 -3.582 8 -8 8 c -4.418 0 -8 -3.582 -8 -8 c 0 -4.418 3.582 -8 8 -8 c 4.418 0 8 3.582 8 8 m 0 0" fill="#000"/><path d="m 24 19 c 3 0 4 3 1 4.75 c 1.457 0.602 2 1.141 2 2.75 c 0 1.5 -1 2.5 -3 2.5 c -2 0 -3 -1 -3 -2.5 c 0 -1 0.727 -2.191 2 -2.75 c -3 -1.75 -2 -4.75 1 -4.75 m -2 7.5 c 0 2.5 4 2.5 4 0 c 0 -1.5 -1 -2.223 -2 -2.285 c -1.371 0.078 -2 0.785 -2 2.285 m 1.988 -6.75 c -2.988 0.25 -1.988 3.25 0.059 3.613 c 1.953 -0.363 2.953 -3.363 -0.047 -3.613" fill="#000"/></g></g></g></g><g><g clip-path="url(#clipPath-962390930)"><g transform="translate(0,-1)"><!-- color: #ebebeb --><g><path d="m 39 24 c -0.004 8.285 -6.719 14.996 -15 14.996 c -8.281 0 -14.996 -6.711 -15 -14.996 c -0.004 -8.285 6.715 -15 15 -15 c 8.285 0 15 6.719 15 15 m 0 0" fill="#2d2d2d"/><path d="m 32 24 c 0 4.418 -3.582 8 -8 8 c -4.418 0 -8 -3.582 -8 -8 c 0 -4.418 3.582 -8 8 -8 c 4.418 0 8 3.582 8 8 m 0 0" fill="#f9f9f9"/><path d="m 24 19 c 3 0 4 3 1 4.75 c 1.457 0.602 2 1.141 2 2.75 c 0 1.5 -1 2.5 -3 2.5 c -2 0 -3 -1 -3 -2.5 c 0 -1 0.727 -2.191 2 -2.75 c -3 -1.75 -2 -4.75 1 -4.75 m -2 7.5 c 0 2.5 4 2.5 4 0 c 0 -1.5 -1 -2.223 -2 -2.285 c -1.371 0.078 -2 0.785 -2 2.285 m 1.988 -6.75 c -2.988 0.25 -1.988 3.25 0.059 3.613 c 1.953 -0.363 2.953 -3.363 -0.047 -3.613" fill="#2d2d2d"/></g></g></g></g><g><g transform="translate(0,-1004.3622)"><path d="m 1 1043.36 0 4 c 0 2.216 1.784 4 4 4 l 38 0 c 2.216 0 4 -1.784 4 -4 l 0 -4 c 0 2.216 -1.784 4 -4 4 l -38 0 c -2.216 0 -4 -1.784 -4 -4 z" opacity="0.1"/></g></g></svg>
